pk/lung.svg

<svg viewBox="0 0 48 48" fill="none" xmlns="http://www.w3.org/2000/svg" height="1em" width="1em">
  <path d="M18.2442 22.263C17.9517 17.3076 16.7773 14.7417 14.7208 14.5654C11.4002 14.2807 6.31025 19.7086 4.80125 27.3367C3.29225 34.9648 4.03742 40.4289 6.01197 40.7978C7.98652 41.1667 10.8556 39.0174 12.2168 39.0174C13.578 39.0174 18.2958 40.0579 18.2958 38.1732C18.2958 37.2445 18.2958 34.9908 18.2958 30.0702" stroke="black" stroke-width="4.57143" stroke-linecap="round"/>
  <path d="M29.6236 22.3707C29.9054 17.3447 31.0819 14.7429 33.1532 14.5654C36.4739 14.2807 41.5638 19.7086 43.0728 27.3367C44.5818 34.9648 43.8366 40.4289 41.8621 40.7978C39.8875 41.1667 37.0184 39.0174 35.6573 39.0174C34.2961 39.0174 29.5782 40.0579 29.5782 38.1732C29.5782 37.2467 29.5782 34.9702 29.5782 30.0702" stroke="black" stroke-width="4.57143" stroke-linecap="round"/>
  <path d="M20.5557 5V19.9106C20.5121 22.2021 18.6 23.3478 14.8193 23.3478" stroke="black" stroke-width="4.57143" stroke-linecap="round"/>
  <path d="M27.292 5V19.9106C27.3355 22.2021 29.2476 23.3478 33.0283 23.3478" stroke="black" stroke-width="4.57143" stroke-linecap="round"/>
  <path d="M15 30.0704C18.9553 30.0704 21.9553 29.1311 24 27.2524C26.0594 29.1311 29.069 30.0704 33.0286 30.0704" stroke="black" stroke-width="4.57143" stroke-linecap="round" stroke-linejoin="round"/>
</svg>

<svg viewBox="0 0 48 48" fill="none" xmlns="http://www.w3.org/2000/svg" height="1em" width="1em">
  <path d="M18.244 22.263c-.292-4.955-1.467-7.521-3.523-7.698-3.32-.284-8.41 5.144-9.92 12.772-1.509 7.628-.764 13.092 1.211 13.46 1.975.37 4.844-1.78 6.205-1.78 1.361 0 6.079 1.04 6.079-.844V30.07m11.328-7.7c.281-5.025 1.458-7.627 3.53-7.805 3.32-.284 8.41 5.144 9.919 12.772 1.509 7.628.764 13.092-1.21 13.46-1.975.37-4.845-1.78-6.206-1.78-1.36 0-6.079 1.04-6.079-.844V30.07" stroke="#000" stroke-width="4.571" stroke-linecap="round"/>
  <path d="M20.556 5v14.91c-.044 2.292-1.956 3.438-5.737 3.438M27.292 5v14.91c.043 2.292 1.956 3.438 5.736 3.438" stroke="#000" stroke-width="4.571" stroke-linecap="round"/>
  <path d="M15 30.07c3.955 0 6.955-.939 9-2.818 2.06 1.88 5.069 2.818 9.029 2.818" stroke="#000" stroke-width="4.571" stroke-linecap="round" stroke-linejoin="round"/>
</svg>
